X: 7283
T: Claudette's
R: reel
M: 4/4
K: Adorian
EAAB cdeg|fddg fddg|eAAc dBcA|BGAF GEFD|
E2 AB cdeg|fddg fd d2|eAAc dBcA|BGAG EA A2:|
aeAa eAcA|BGBd gd (3efg|aeAa eAcg|fddg fd (3efg|
aeAa eAcA|BGBd g3 g|aegd ecdB|BGAF EA A2:|

